packages/core/src/svgs/wbtc.svg

<svg width="24" height="24" viewBox="0 0 24 24" fill="none" xmlns="http://www.w3.org/2000/svg">
<g clip-path="url(#clip0_31_20657)">
<path d="M0 0H24V24H0V0Z" fill="#312541"/>
<path d="M16.3255 8.03592L15.9484 8.41135C16.8465 9.38878 17.345 10.6678 17.345 11.9953C17.345 13.3227 16.8465 14.6018 15.9484 15.5792L16.3255 15.9542C17.3247 14.8762 17.8799 13.4606 17.8799 11.9908C17.8799 10.5209 17.3247 9.10533 16.3255 8.02735V8.03592ZM8.40507 8.0685C10.4416 6.21278 13.5634 6.21278 15.5999 8.0685L15.9766 7.6935C13.7292 5.62821 10.2672 5.62821 8.01978 7.6935L8.40507 8.0685ZM8.05364 15.5831C7.15642 14.6058 6.65858 13.3275 6.65858 12.0009C6.65858 10.6742 7.15642 9.39587 8.05364 8.41864L7.67693 8.04364C6.67773 9.12162 6.12256 10.5372 6.12256 12.0071C6.12256 13.4769 6.67773 14.8925 7.67693 15.9705L8.05364 15.5831ZM15.5961 15.9294C13.5595 17.7851 10.4382 17.7851 8.40121 15.9294L8.02493 16.3044C10.2719 18.3696 13.7344 18.3696 15.9814 16.3044L15.5961 15.9294Z" fill="#D4D3D7"/>
<path d="M13.0713 10.9288C13.0713 11.4118 12.6428 11.5716 12.2142 11.5716H11.5713V10.2859H12.4285C12.7568 10.2859 13.0713 10.5259 13.0713 10.9288ZM13.4485 13.0969C13.4485 13.6236 12.857 13.7145 12.4285 13.7145H11.5713V12.4288H12.4285C12.812 12.4288 13.4485 12.5835 13.4485 13.0969ZM14.3772 10.7484C14.3018 9.96578 13.7142 9.50892 12.857 9.42878V8.14307H11.9999V9.42235C11.8255 9.42235 11.7513 9.42235 11.5743 9.42878V8.14307H10.7142V9.42878H9.42847V10.2859H9.9089C10.0713 10.2859 10.2856 10.2859 10.2856 10.6258V13.4955C10.2856 13.5002 10.2856 13.7145 10.037 13.7145H9.56004L9.42847 14.5716H10.7142V15.8574H11.5713L11.567 14.5716H11.9999V15.8574H12.857V14.5716C13.9765 14.5039 14.6613 14.2712 14.759 13.2272C14.8379 12.3868 14.441 12.0114 13.8076 11.8601C14.1929 11.6651 14.4346 11.3214 14.3772 10.7484Z" fill="white"/>
<path d="M11.9987 5.70111C8.50882 5.70283 5.68154 8.52325 5.68368 11.9998C5.68582 15.4764 8.51654 18.2934 12.0064 18.2913C15.4937 18.2891 18.3197 15.473 18.321 11.9985C18.3167 8.5224 15.4881 5.7024 11.9987 5.70111ZM11.9987 18.8313C8.21182 18.8313 5.14197 15.7717 5.14282 11.9985C5.14368 8.2254 8.21397 5.16711 12.0013 5.16797C15.7873 5.16883 18.8567 8.22625 18.8571 11.9985C18.8528 15.7704 15.7847 18.8274 11.9987 18.8317V18.8313Z" fill="white"/>
</g>
<defs>
<clipPath id="clip0_31_20657">
<rect width="24" height="24" fill="white"/>
</clipPath>
</defs>
</svg>

<svg xmlns="http://www.w3.org/2000/svg" width="24" height="24" fill="none" viewBox="0 0 24 24"><g clip-path="url(#a)"><path fill="#312541" d="M0 0h24v24H0z"/><path fill="#D4D3D7" d="m16.326 8.036-.378.375a5.297 5.297 0 0 1 0 7.168l.378.375a5.83 5.83 0 0 0 0-7.927zm-7.92.033a5.345 5.345 0 0 1 7.194 0l.377-.376a5.884 5.884 0 0 0-7.957 0zm-.352 7.514a5.297 5.297 0 0 1 0-7.164l-.377-.375a5.83 5.83 0 0 0 0 7.926zm7.542.346a5.345 5.345 0 0 1-7.195 0l-.376.375a5.883 5.883 0 0 0 7.956 0z"/><path fill="#fff" d="M13.071 10.929c0 .483-.428.643-.857.643h-.643v-1.286h.857a.63.63 0 0 1 .643.643m.377 2.168c0 .527-.591.617-1.02.617h-.857V12.43h.857c.384 0 1.02.155 1.02.668m.93-2.349c-.076-.782-.664-1.24-1.521-1.32V8.144H12v1.28c-.175 0-.249 0-.426.006V8.143h-.86V9.43H9.428v.857h.48c.163 0 .378 0 .378.34v2.87c0 .004 0 .218-.249.218H9.56l-.132.858h1.286v1.285h.857l-.004-1.285H12v1.285h.857v-1.285c1.12-.068 1.804-.3 1.902-1.345.079-.84-.318-1.216-.951-1.367.385-.195.627-.539.57-1.112"/><path fill="#fff" d="M11.999 5.701C8.509 5.703 5.682 8.523 5.684 12c.002 3.476 2.833 6.293 6.322 6.291S18.32 15.473 18.321 12c-.004-3.477-2.833-6.297-6.322-6.298m0 13.13c-3.787 0-6.857-3.06-6.856-6.832 0-3.774 3.071-6.832 6.858-6.831s6.856 3.058 6.856 6.83c-.004 3.772-3.072 6.83-6.858 6.834"/></g><defs><clipPath id="a"><path fill="#fff" d="M0 0h24v24H0z"/></clipPath></defs></svg>
